exampleSite/static/images/warm-cinema-faded_1-vid_20210105_114628.cube
TITLE "Generated by Resolve"
LUT_3D_SIZE 33
0.0437476 0.0403601 0.0242161
0.065919 0.0392157 0.0230564
0.0899977 0.0375525 0.0213931
0.111131 0.0366979 0.0205386
0.131197 0.0361486 0.0199893
0.150546 0.0357977 0.0196536
0.169482 0.0355993 0.01944
0.188067 0.0355077 0.0193637
0.206424 0.0355535 0.0193942
0.22446 0.0355535 0.0194095
0.242557 0.0358282 0.0196689
0.260456 0.0360418 0.0198825
0.278264 0.0362402 0.0200961
0.29601 0.0364233 0.0202792
0.313741 0.0365759 0.0204318
0.331701 0.0367742 0.0206149
0.349554 0.0368963 0.020737
0.367453 0.0369421 0.0207828
0.385473 0.0369116 0.0207523
0.403784 0.0367895 0.0206302
0.422156 0.0366369 0.0204776
0.440879 0.0365301 0.0203708
0.4598 0.0361791 0.0200198
0.479057 0.0357214 0.0195773
0.498573 0.0351873 0.019028
0.518624 0.0344701 0.0183261
0.539147 0.033814 0.0176547
0.560952 0.0326238 0.0164645
0.585748 0.0305943 0.014435
0.614023 0.0276188 0.0114595
0.646265 0.0235447 0.00740063
0.681544 0.0187991 0.00265507
0.718822 0.0133974 0
0.0443427 0.0580606 0.0248112
0.0665446 0.0569467 0.023682
0.0906539 0.055314 0.0220645
0.111833 0.0545205 0.0212558
0.131975 0.0540322 0.0207675
0.151278 0.0536355 0.0203861
0.170336 0.0535439 0.0202792
0.189029 0.0535592 0.0203098
0.207462 0.0536965 0.0204318
0.225681 0.0538949 0.0206302
0.243626 0.0540017 0.020737
0.261433 0.0541238 0.0208591
0.279149 0.0542306 0.0209812
0.296818 0.0543526 0.021088
0.314611 0.0545663 0.0213016
0.332448 0.054612 0.0213626
0.350195 0.0546273 0.0213779
0.368017 0.0545968 0.0213474
0.385992 0.0545205 0.0212711
0.404288 0.0543984 0.0211337
0.422705 0.0542916 0.0210269
0.44126 0.0540017 0.020737
0.460121 0.0536049 0.0203555
0.479347 0.0531167 0.019852
0.498833 0.0525368 0.0192721
0.51899 0.0519417 0.018677
0.53933 0.0511025 0.0178378
0.56109 0.0498665 0.0166018
0.585855 0.0478065 0.0145418
0.614099 0.0448005 0.0115511
0.646464 0.0408637 0.00759899
0.681605 0.0359655 0.00271611
0.718822 0.0305028 0
0.0453193 0.0758068 0.0257725
0.0675822 0.0747692 0.0247349
0.0916762 0.0731212 0.0230869
0.113024 0.0724804 0.0224308
0.133242 0.0720684 0.022034
0.152697 0.0718395 0.0218051
0.171695 0.0716869 0.0216526
0.190448 0.0717632 0.0217288
0.208728 0.0717479 0.0217136
0.22678 0.0717632 0.0217288
0.244663 0.071809 0.0217746
0.262409 0.0718853 0.0218357
0.280156 0.0720226 0.0219883
0.297826 0.0721294 0.0220798
0.315419 0.0721447 0.0221103
0.333165 0.0721294 0.0220951
0.350866 0.0720989 0.0220645
0.368688 0.0720531 0.0220188
0.386725 0.0720378 0.0220035
0.404929 0.0718242 0.0217899
0.423209 0.0715801 0.0215457
0.441733 0.0712596 0.0212253
0.460578 0.0708324 0.020798
0.479896 0.0704356 0.0204013
0.499336 0.0698253 0.019791
0.519326 0.0690623 0.0190127
0.539651 0.0681926 0.0181582
0.561379 0.0669261 0.0168917
0.586267 0.0649882 0.0149538
0.614481 0.0619516 0.0119173
0.646677 0.057847 0.00781262
0.681804 0.0529335 0.00289921
0.719005 0.0474556 0
0.0460212 0.0940871 0.0264897
0.0683452 0.0930953 0.0254978
0.0925612 0.0915694 0.0239567
0.113787 0.0908064 0.023209
0.133913 0.0903182 0.0227054
0.153292 0.0899977 0.0224002
0.172351 0.0899214 0.0223087
0.19089 0.0897841 0.0221714
0.209125 0.0897078 0.0220951
0.227115 0.089662 0.0220493
0.244923 0.0896468 0.022034
0.262715 0.0897536 0.0221408
0.280354 0.0897993 0.0221866
0.297932 0.0897993 0.0221866
0.31548 0.0897841 0.0221714
0.333181 0.0897078 0.0220951
0.350896 0.0896925 0.0220798
0.368734 0.0896773 0.0220645
0.386618 0.0895094 0.021912
0.404791 0.0892653 0.0216526
0.423041 0.0889754 0.0213626
0.44155 0.0886397 0.0210422
0.460472 0.088304 0.0207065
0.479637 0.0877546 0.0201419
0.499062 0.0871138 0.019501
0.51902 0.086305 0.0187076
0.539315 0.0854353 0.0178225
0.561166 0.0842756 0.0166629
0.585885 0.0821698 0.0145724
0.614069 0.079118 0.0115206
0.64625 0.0749981 0.00738537
0.681361 0.0700694 0.00247196
0.718685 0.0647135 0
0.046891 0.112337 0.0273594
0.0691234 0.111254 0.0262608
0.0932479 0.109636 0.0246586
0.114412 0.108812 0.0238193
0.134493 0.108278 0.0232853
0.153933 0.108019 0.0230411
0.172793 0.107729 0.0227512
0.191257 0.10753 0.0225376
0.20943 0.107393 0.0224002
0.227375 0.107317 0.0223239
0.245289 0.107393 0.0224002
0.262928 0.107347 0.0223545
0.280491 0.107301 0.0223087
0.298009 0.107271 0.0222782
0.315541 0.10721 0.0222324
0.333349 0.107256 0.0222629
0.350973 0.107149 0.0221561
0.368688 0.106996 0.0220035
0.386542 0.106813 0.0218204
0.404685 0.106538 0.0215457
0.423056 0.106371 0.0213779
0.441505 0.105974 0.0209964
0.460288 0.105501 0.0205081
0.479423 0.104921 0.0199283
0.498817 0.10425 0.0192721
0.518898 0.103578 0.0185855
0.539178 0.102663 0.0176699
0.560861 0.101366 0.0163729
0.585565 0.0992447 0.0142519
0.613748 0.0961776 0.0111849
0.646052 0.0921798 0.007187
0.681147 0.0872358 0.00224308
0.718318 0.0817273 0
0.0476387 0.130266 0.0280919
0.06981 0.129122 0.0269474
0.0938735 0.127443 0.0252842
0.115099 0.126696 0.0245212
0.135103 0.12607 0.0238956
0.154376 0.125643 0.0234684
0.17319 0.125307 0.0231327
0.191608 0.125063 0.0228885
0.209857 0.125002 0.0228428
0.227771 0.124895 0.0227207
0.245502 0.124788 0.0226139
0.263111 0.124712 0.0225376
0.280644 0.124636 0.0224765
0.298222 0.124651 0.0224765
0.315755 0.12462 0.022446
0.333394 0.124483 0.0223087
0.350988 0.124346 0.0221866
0.368688 0.124178 0.0220035
0.386587 0.124025 0.0218662
0.404761 0.123796 0.021622
0.422965 0.123461 0.0213016
0.441413 0.123064 0.0208896
0.460166 0.12256 0.0203861
0.479347 0.122026 0.019852
0.498802 0.121416 0.0192416
0.51873 0.120592 0.0184176
0.538979 0.119661 0.0174868
0.560662 0.118349 0.0161746
0.585412 0.116274 0.0140993
0.613657 0.113268 0.0111086
0.645808 0.109117 0.00694286
0.680888 0.104173 0.00199893
0.718059 0.0986496 0
0.0481727 0.147967 0.0286259
0.0703136 0.146792 0.027451
0.0944533 0.14519 0.025864
0.115496 0.144244 0.024918
0.135454 0.143587 0.0242466
0.154665 0.143099 0.0237583
0.173434 0.142718 0.0233921
0.191974 0.142596 0.0232548
0.210071 0.142382 0.0230411
0.227924 0.142199 0.0228733
0.245609 0.142061 0.0227359
0.263188 0.141955 0.0226139
0.280827 0.142 0.0226596
0.298299 0.141894 0.0225681
0.315755 0.141787 0.022446
0.333364 0.141619 0.0222782
0.350942 0.141466 0.0221256
0.368734 0.14139 0.0220493
0.386557 0.141176 0.0218357
0.404654 0.140856 0.0215152
0.422827 0.14049 0.0211643
0.44126 0.140078 0.020737
0.460121 0.139681 0.0203403
0.47924 0.139086 0.0197452
0.498604 0.138384 0.0190585
0.518517 0.137545 0.018204
0.538766 0.136599 0.0172732
0.560555 0.135409 0.0160678
0.58526 0.133272 0.0139467
0.613413 0.13019 0.0108492
0.645563 0.126024 0.00669871
0.680629 0.12108 0.00173953
0.717937 0.115694 0
0.0488899 0.165576 0.0293584
0.0709697 0.164324 0.0281071
0.0949264 0.162554 0.0263371
0.115938 0.161578 0.0253605
0.135866 0.160876 0.0246586
0.155184 0.160494 0.0242771
0.173922 0.160098 0.0238651
0.192264 0.159777 0.0235599
0.21033 0.159533 0.0233005
0.228168 0.159335 0.0231174
0.24596 0.159304 0.0230869
0.263523 0.159167 0.0229496
0.280995 0.159045 0.0228275
0.298436 0.158923 0.0227054
0.315877 0.158785 0.0225681
0.333593 0.158724 0.0225071
0.351156 0.158572 0.0223392
0.368811 0.158358 0.0221256
0.386603 0.158099 0.0218814
0.404685 0.157763 0.0215457
0.422965 0.157519 0.0213016
0.441398 0.157092 0.0208743
0.460121 0.156573 0.0203555
0.47921 0.155947 0.0197147
0.498573 0.15523 0.0190127
0.518608 0.154513 0.0182956
0.538857 0.153582 0.0173648
0.56051 0.152239 0.016022
0.585199 0.150103 0.0138857
0.613352 0.147005 0.0107881
0.645624 0.142977 0.00675975
0.680705 0.138033 0.00181582
0.717876 0.132509 0
0.0493935 0.182849 0.0298619
0.0714275 0.181567 0.0285801
0.0953689 0.179767 0.0267643
0.116335 0.178759 0.0257572
0.13637 0.178164 0.0251621
0.15552 0.177615 0.0246128
0.174228 0.177188 0.0241855
0.192554 0.176837 0.0238346
0.21059 0.176562 0.0235599
0.228534 0.176486 0.0234836
0.246189 0.176303 0.0233005
0.263706 0.176135 0.0231479
0.281163 0.175998 0.0229953
0.298589 0.175845 0.0228428
0.316136 0.17583 0.0228275
0.333715 0.175631 0.0226291
0.351263 0.175448 0.022446
0.368902 0.175219 0.0222171
0.386664 0.174945 0.0219425
0.404883 0.174731 0.0217441
0.423041 0.174365 0.0213626
0.441428 0.173922 0.0209201
0.460166 0.173373 0.0203861
0.47924 0.172747 0.0197452
0.498726 0.172183 0.0191806
0.518624 0.171313 0.0183108
0.538857 0.170367 0.0173648
0.560525 0.169024 0.0160372
0.585214 0.166903 0.013901
0.613489 0.163928 0.0109407
0.64564 0.159777 0.00677501
0.680705 0.154818 0.00181582
0.717876 0.149294 0
0.0497292 0.200031 0.0301976
0.0717327 0.198718 0.0288853
0.0956893 0.196948 0.0271
0.116732 0.195987 0.026154
0.136599 0.195224 0.025391
0.155718 0.194659 0.0248112
0.174411 0.194202 0.0243534
0.192737 0.193866 0.024033
0.210864 0.193683 0.0238346
0.228656 0.193439 0.0235904
0.246281 0.19324 0.0233921
0.263783 0.193057 0.023209
0.281254 0.192935 0.0230869
0.298772 0.192874 0.0230411
0.316182 0.192706 0.0228733
0.333745 0.192493 0.0226596
0.351263 0.192294 0.022446
0.368933 0.192096 0.0222629
0.386801 0.191928 0.0220798
0.404868 0.191562 0.0217288
0.423011 0.19118 0.0213321
0.441398 0.190723 0.0208896
0.460182 0.190249 0.0204013
0.479332 0.189685 0.019852
0.498695 0.188983 0.0191348
0.518593 0.188128 0.0182803
0.538827 0.187167 0.0173342
0.560571 0.185916 0.016083
0.585306 0.183825 0.0139925
0.613458 0.180743 0.0109102
0.645609 0.176593 0.00674449
0.68069 0.171633 0.00180056
0.717983 0.166232 0
0.0501564 0.217105 0.0306096
0.0722362 0.215869 0.0293736
0.0961166 0.214008 0.027512
0.117037 0.21294 0.0264439
0.136873 0.212161 0.0256657
0.156008 0.211612 0.0251164
0.174792 0.211231 0.0247349
0.193072 0.210849 0.0243534
0.211063 0.210544 0.0240482
0.22884 0.210285 0.0237888
0.246494 0.210101 0.0236057
0.264088 0.21001 0.0235142
0.281514 0.209842 0.0233463
0.298909 0.209674 0.0231785
0.316304 0.209491 0.0229953
0.333913 0.209323 0.0228275
0.351522 0.209201 0.0227054
0.369146 0.208957 0.0224613
0.386908 0.208682 0.0221866
0.404959 0.208316 0.0218204
0.423178 0.207996 0.0215
0.441642 0.207614 0.0211185
0.460365 0.20708 0.0205844
0.479438 0.206439 0.0199435
0.498787 0.205737 0.0192416
0.518776 0.204959 0.0184634
0.539071 0.204074 0.0175784
0.560739 0.202747 0.0162509
0.585412 0.200595 0.0140993
0.613581 0.197513 0.011017
0.645869 0.1935 0.00700389
0.680964 0.188571 0.00207523
0.718151 0.183078 0
0.0505684 0.23415 0.0310216
0.0725261 0.232792 0.0296635
0.096376 0.230915 0.0277867
0.117281 0.229831 0.0267033
0.137194 0.229114 0.0259861
0.156329 0.228565 0.0254368
0.17499 0.228061 0.0249332
0.193256 0.227665 0.0245365
0.211231 0.227344 0.0242161
0.229099 0.227176 0.024033
0.246738 0.226993 0.0238651
0.264225 0.226795 0.0236667
0.281651 0.226612 0.0234836
0.299031 0.226429 0.0233005
0.316533 0.226352 0.0232242
0.334127 0.226169 0.0230411
0.351629 0.225956 0.0228122
0.369253 0.225711 0.0225681
0.387015 0.225422 0.0222934
0.405203 0.225193 0.0220645
0.423362 0.224811 0.0216831
0.441749 0.224369 0.0212406
0.460472 0.223835 0.0206912
0.479561 0.223194 0.0200656
0.499062 0.222629 0.019501
0.518959 0.221775 0.0186465
0.539208 0.220844 0.0177157
0.560876 0.219516 0.0163882
0.58558 0.217395 0.0142672
0.613901 0.214466 0.0113375
0.646052 0.21033 0.007187
0.681163 0.205386 0.00225834
0.718349 0.199908 0
0.0507057 0.251057 0.0311742
0.0726482 0.249683 0.0297856
0.0964981 0.247791 0.0278935
0.117525 0.24683 0.0269474
0.137331 0.246021 0.0261234
0.156405 0.245396 0.0255131
0.175051 0.244892 0.0249943
0.193317 0.244495 0.0245975
0.211429 0.244297 0.0243992
0.229175 0.244022 0.0241245
0.246769 0.243793 0.0238956
0.264256 0.24358 0.023682
0.281666 0.243397 0.0234989
0.299199 0.243351 0.0234531
0.316579 0.243168 0.02327
0.334142 0.242954 0.0230564
0.351644 0.242725 0.0228428
0.369268 0.242481 0.0225834
0.387167 0.242344 0.022446
0.405234 0.241993 0.0220951
0.423392 0.241611 0.0217136
0.441779 0.241169 0.0212711
0.460548 0.240665 0.0207675
0.479744 0.240146 0.0202487
0.499107 0.23946 0.0195621
0.519036 0.238621 0.0187228
0.539284 0.23769 0.017792
0.561044 0.236439 0.0165408
0.585824 0.234394 0.0144961
0.614008 0.231342 0.0114595
0.646189 0.227222 0.00732433
0.681315 0.222309 0.00241093
0.718639 0.216953 0
0.0508583 0.267903 0.0313115
0.0729229 0.266667 0.0300603
0.0967575 0.264759 0.0281529
0.117632 0.263645 0.027039
0.137423 0.262821 0.026215
0.156497 0.262196 0.0255894
0.175265 0.261814 0.0252232
0.19353 0.261402 0.0248112
0.21149 0.261067 0.0244755
0.229236 0.260792 0.0241855
0.24683 0.260548 0.0239567
0.264454 0.260487 0.0238804
0.281865 0.260304 0.0236973
0.299245 0.260121 0.0235142
0.31664 0.259937 0.023331
0.334203 0.259724 0.0231174
0.351858 0.259648 0.0230411
0.369482 0.259403 0.0228122
0.387259 0.259129 0.0225376
0.405325 0.258778 0.0221714
0.423529 0.258442 0.0218509
0.442039 0.258122 0.0215152
0.460777 0.257588 0.0209964
0.479866 0.256977 0.0203861
0.499245 0.256291 0.0196994
0.519265 0.255543 0.0189517
0.53959 0.254704 0.0180972
0.561303 0.253407 0.0168154
0.586023 0.251301 0.0147097
0.614221 0.248264 0.0116579
0.646555 0.244297 0.00769055
0.681712 0.239414 0.00282292
0.718944 0.233967 0
0.0510567 0.284871 0.0315099
0.0729686 0.283467 0.0301213
0.0968032 0.281559 0.0281987
0.117662 0.280446 0.0270848
0.137484 0.279637 0.026276
0.156664 0.279118 0.0257725
0.175296 0.278599 0.0252537
0.193545 0.278187 0.0248264
0.211521 0.277852 0.0244907
0.229313 0.277607 0.0242618
0.246998 0.27747 0.0241245
0.264485 0.277272 0.0239109
0.281895 0.277073 0.0237278
0.29929 0.276905 0.0235599
0.316762 0.276814 0.0234531
0.334386 0.276646 0.0233005
0.351919 0.276448 0.0231022
0.369543 0.276219 0.0228733
0.387335 0.275959 0.0226139
0.405524 0.275731 0.022385
0.423713 0.275395 0.0220493
0.442145 0.274968 0.021622
0.460899 0.274464 0.0211185
0.480018 0.273869 0.0205234
0.49955 0.27335 0.0199893
0.519493 0.272541 0.0191806
0.539773 0.271641 0.0182803
0.561502 0.270359 0.0170138
0.586252 0.268284 0.0149386
0.614633 0.265415 0.0120699
0.646845 0.261326 0.00798047
0.682002 0.256458 0.00311284
0.719265 0.251041 0
0.0510262 0.301686 0.0314794
0.0729381 0.300282 0.0300755
0.0967575 0.29836 0.0281682
0.117769 0.297383 0.0271916
0.13756 0.296559 0.0263523
0.156619 0.295918 0.0257267
0.17525 0.295399 0.0252079
0.1935 0.294987 0.0247807
0.211612 0.294789 0.0245975
0.229374 0.294514 0.0243229
0.246967 0.294286 0.024094
0.264454 0.294087 0.0238956
0.28188 0.293904 0.0237125
0.299413 0.293889 0.023682
0.316823 0.293721 0.0235142
0.334401 0.293507 0.0233158
0.351934 0.293324 0.0231174
0.369574 0.293095 0.0229038
0.387518 0.292988 0.022797
0.405615 0.292668 0.0224613
0.423804 0.292317 0.0221256
0.442237 0.29192 0.0217136
0.461036 0.291447 0.0212558
0.480278 0.29099 0.0207828
0.499702 0.290349 0.0201419
0.519661 0.289555 0.0193637
0.539971 0.288685 0.0184787
0.561791 0.28751 0.0173037
0.586633 0.285512 0.0153201
0.614893 0.282536 0.0123293
0.647135 0.278477 0.00828565
0.682338 0.27364 0.00343328
0.719753 0.268376 0
0.050782 0.318578 0.0312505
0.0728008 0.317266 0.0299382
0.0966659 0.315389 0.0280613
0.117525 0.314275 0.0269474
0.137316 0.313436 0.0261082
0.15639 0.31281 0.0254826
0.175143 0.312428 0.0251011
0.193423 0.312032 0.0247044
0.211398 0.311696 0.0243687
0.22916 0.311421 0.0241093
0.246769 0.311208 0.0238804
0.264408 0.311162 0.0238346
0.281834 0.310994 0.0236667
0.299245 0.310842 0.0235142
0.316655 0.310674 0.0233463
0.334249 0.310491 0.0231632
0.351949 0.31046 0.0231327
0.369604 0.310262 0.0229343
0.387411 0.310018 0.0226902
0.405524 0.309712 0.022385
0.423774 0.309422 0.0220951
0.442329 0.309148 0.0218204
0.461128 0.308675 0.0213474
0.480278 0.30811 0.0207828
0.499718 0.307485 0.0201572
0.519799 0.306813 0.019501
0.5402 0.306035 0.0187076
0.561975 0.304814 0.0174868
0.58677 0.30277 0.0154421
0.615045 0.299809 0.0124819
0.647471 0.295933 0.00860609
0.682704 0.291127 0.0037995
0.720027 0.285771 0
0.0506752 0.335607 0.0311284
0.0725872 0.334203 0.0297246
0.0964065 0.33228 0.0278172
0.117281 0.331167 0.0267033
0.137087 0.330343 0.0258793
0.156298 0.329854 0.025391
0.174929 0.329351 0.0248875
0.19321 0.328954 0.0244907
0.211185 0.328634 0.0241703
0.228992 0.328405 0.0239414
0.246723 0.328313 0.0238346
0.264225 0.32813 0.0236667
0.281682 0.327977 0.0235142
0.299107 0.32784 0.0233768
0.316609 0.327779 0.0233005
0.334279 0.327672 0.0231937
0.351843 0.327504 0.0230411
0.369528 0.327321 0.022858
0.387366 0.327123 0.0226444
0.405631 0.326955 0.0224765
0.423865 0.326665 0.0222019
0.442344 0.326299 0.0218357
0.461173 0.325856 0.0213931
0.480354 0.325338 0.0208591
0.499962 0.32488 0.0204166
0.519982 0.324147 0.0196689
0.540352 0.323323 0.0188602
0.562158 0.322133 0.0176547
0.587015 0.320165 0.0157015
0.615457 0.317372 0.0128939
0.647761 0.313359 0.00889601
0.683009 0.308583 0.00411994
0.720378 0.303273 0
0.0502937 0.35256 0.0307469
0.0722057 0.351156 0.0293431
0.0960403 0.349248 0.0274357
0.117052 0.348287 0.0264744
0.136873 0.347478 0.0256657
0.155947 0.346868 0.0250553
0.174594 0.346365 0.0245518
0.192874 0.345983 0.024155
0.211017 0.345815 0.0240024
0.228809 0.345571 0.0237583
0.246448 0.345373 0.0235599
0.263966 0.34522 0.0234073
0.281437 0.345083 0.02327
0.299016 0.345098 0.0232853
0.316487 0.344991 0.0231632
0.334112 0.344839 0.0230259
0.35169 0.344686 0.0228733
0.36939 0.344533 0.0227207
0.387396 0.344488 0.0226749
0.405554 0.344228 0.0224155
0.423819 0.343954 0.0221408
0.442313 0.343618 0.0218051
0.461204 0.343252 0.0214389
0.480522 0.34284 0.0210269
0.500023 0.34229 0.0204623
0.520088 0.341588 0.0197757
0.540475 0.340795 0.0189822
0.562417 0.339742 0.0179294
0.58732 0.337819 0.0160067
0.615686 0.334936 0.0131228
0.648035 0.330983 0.00917067
0.68333 0.326253 0.00444038
0.720882 0.321111 0
0.0497139 0.369619 0.0301823
0.0717327 0.368322 0.0288701
0.0956283 0.366476 0.027039
0.116518 0.365393 0.0259403
0.136339 0.364584 0.0251316
0.155444 0.363989 0.0245365
0.174228 0.363622 0.0241855
0.192554 0.363272 0.0238346
0.210559 0.362982 0.0235447
0.228367 0.362753 0.0233158
0.246021 0.362585 0.0231327
0.263722 0.362585 0.0231479
0.281209 0.362478 0.0230259
0.298665 0.362371 0.0229343
0.316136 0.36228 0.0228275
0.333791 0.362158 0.0227054
0.351553 0.362188 0.0227512
0.369284 0.362066 0.0226139
0.387167 0.361898 0.022446
0.405356 0.361654 0.0222171
0.423713 0.361471 0.022034
0.442329 0.361257 0.0218204
0.461219 0.360876 0.0214389
0.480461 0.360403 0.0209659
0.499977 0.359869 0.0204318
0.520211 0.359335 0.0198978
0.540673 0.358618 0.0191806
0.562539 0.357504 0.0180514
0.587442 0.355581 0.0161288
0.615839 0.352712 0.0132753
0.648386 0.348959 0.00952163
0.683726 0.344289 0.00483711
0.721187 0.33904 0
0.0491035 0.386954 0.029572
0.071046 0.38558 0.0281834
0.0949111 0.383703 0.0263066
0.115816 0.38262 0.0252384
0.135653 0.381826 0.024445
0.15491 0.381384 0.0240024
0.173587 0.380926 0.0235447
0.191913 0.380575 0.0231937
0.209949 0.380316 0.0229191
0.227817 0.380148 0.0227665
0.245594 0.380102 0.0227054
0.263157 0.37998 0.0225834
0.280674 0.379889 0.0225071
0.298177 0.379828 0.0224308
0.31577 0.379843 0.0224613
0.333501 0.379797 0.0224155
0.351141 0.379721 0.0223239
0.368902 0.379614 0.0222324
0.386816 0.379492 0.0221103
0.405188 0.379446 0.0220493
0.423514 0.379217 0.0218357
0.442084 0.378958 0.021561
0.461006 0.378607 0.0212253
0.480293 0.37818 0.020798
0.500008 0.377844 0.0204623
0.520134 0.377218 0.0198215
0.540612 0.376501 0.0191196
0.562539 0.375433 0.0180362
0.587564 0.373632 0.0162509
0.616083 0.370916 0.0135195
0.648524 0.367041 0.00965896
0.683909 0.362387 0.00500496
0.721401 0.357214 0
0.048249 0.404257 0.0287175
0.0702068 0.402899 0.0273594
0.0940871 0.401022 0.0254826
0.115145 0.400107 0.024567
0.135012 0.399344 0.0238041
0.154147 0.398795 0.0232395
0.172854 0.398352 0.022797
0.191196 0.398016 0.0224765
0.2094 0.397925 0.0223697
0.227253 0.397742 0.0222019
0.244953 0.39762 0.0220798
0.262562 0.397528 0.0219883
0.280095 0.397467 0.021912
0.297765 0.397574 0.0220188
0.315297 0.397543 0.0219883
0.333013 0.397467 0.0219272
0.350683 0.397421 0.0218814
0.368505 0.397375 0.0218204
0.386572 0.397406 0.0218509
0.404837 0.397253 0.0216983
0.423209 0.397086 0.0215305
0.441825 0.396841 0.0213016
0.460853 0.396628 0.021088
0.480247 0.396292 0.0207523
0.49987 0.395865 0.0203098
0.520043 0.395285 0.0197452
0.540566 0.394614 0.0190738
0.562676 0.393744 0.0181888
0.587671 0.391913 0.0163577
0.616175 0.389166 0.013611
0.648676 0.385351 0.00981155
0.684123 0.380774 0.00523384
0.721813 0.375769 0.000228885
0.0472114 0.421714 0.0276646
0.069276 0.420462 0.0264134
0.0932326 0.418677 0.0246281
0.114168 0.417639 0.0235904
0.134051 0.416892 0.0228428
0.153216 0.416358 0.0223087
0.172091 0.416083 0.022034
0.190463 0.415793 0.0217441
0.208545 0.415579 0.0215305
0.226429 0.415427 0.0213779
0.24416 0.415335 0.0212863
0.261952 0.415427 0.0213779
0.279515 0.415396 0.0213474
0.297063 0.415381 0.0213321
0.314641 0.415381 0.0213321
0.332418 0.415381 0.0213321
0.350256 0.415488 0.0214389
0.368093 0.415473 0.0214237
0.386084 0.415412 0.0213626
0.404379 0.41529 0.0212406
0.422889 0.415259 0.02121
0.441596 0.415137 0.021088
0.460609 0.414878 0.0208286
0.479973 0.414527 0.0204776
0.499626 0.414115 0.0200656
0.520012 0.413748 0.0196994
0.540597 0.413153 0.0191043
0.562615 0.412177 0.0181277
0.587655 0.410391 0.0163424
0.61619 0.407675 0.0136263
0.648905 0.404089 0.0100404
0.684413 0.399558 0.00550851
0.722026 0.394491 0.000442512
0.0459754 0.439551 0.0264439
0.0679789 0.438224 0.0251316
0.0919051 0.436423 0.0233158
0.112886 0.435416 0.0223087
0.132799 0.434699 0.0215915
0.152117 0.434318 0.02121
0.170886 0.433936 0.0208286
0.189288 0.433677 0.0205692
0.207416 0.433494 0.0203861
0.225391 0.433448 0.0203403
0.243229 0.433463 0.0203555
0.260899 0.433433 0.020325
0.278508 0.433448 0.0203403
0.296117 0.433478 0.0203708
0.313863 0.433661 0.0205539
0.331655 0.433677 0.0205692
0.349401 0.433707 0.0205997
0.3673 0.433722 0.0206149
0.385336 0.433722 0.0206149
0.40383 0.433799 0.0206912
0.422278 0.433707 0.0205997
0.44097 0.43357 0.0204623
0.460029 0.433356 0.0202487
0.479515 0.433143 0.0200351
0.499336 0.432883 0.0197757
0.5196 0.432395 0.0193027
0.54023 0.431846 0.0187381
0.56231 0.43093 0.0178225
0.587564 0.429358 0.0162509
0.61619 0.426749 0.0136416
0.648798 0.423041 0.00993362
0.684352 0.418555 0.00544747
0.722026 0.41355 0.000442512
0.0445106 0.457404 0.0249638
0.0665293 0.456123 0.023682
0.0904707 0.454322 0.0218814
0.11162 0.453498 0.0210422
0.131579 0.452811 0.0203708
0.150805 0.452338 0.0198978
0.169589 0.451987 0.0195468
0.188022 0.451743 0.0193027
0.206317 0.451743 0.0193027
0.224292 0.451682 0.0192264
0.2421 0.451652 0.0192111
0.2598 0.451667 0.0192264
0.27744 0.451713 0.0192721
0.295232 0.451942 0.0194858
0.312886 0.452018 0.0195773
0.330724 0.452079 0.0196384
0.348531 0.452155 0.0197147
0.366522 0.452293 0.0198367
0.38468 0.452399 0.0199588
0.403082 0.452384 0.0199435
0.421592 0.452369 0.019913
0.440345 0.452277 0.0198367
0.459602 0.452262 0.0198215
0.479072 0.452033 0.0195926
0.498863 0.451743 0.0193027
0.519203 0.451347 0.0188907
0.539895 0.450843 0.0184024
0.562173 0.450126 0.0176852
0.58735 0.448478 0.016022
0.616022 0.445914 0.0134585
0.648707 0.442283 0.00984207
0.684428 0.43798 0.00552377
0.722225 0.433097 0.000640879
0.042771 0.475502 0.0232242
0.0649424 0.474357 0.0220798
0.0889754 0.472633 0.0203708
0.110002 0.471687 0.0194247
0.129976 0.471031 0.0187686
0.149233 0.470603 0.0183261
0.168231 0.470451 0.0181735
0.186694 0.470253 0.0179751
0.204883 0.47013 0.0178683
0.222873 0.470085 0.0178225
0.240742 0.47013 0.0178683
0.25864 0.470344 0.0180667
0.276341 0.470436 0.0181735
0.294011 0.470542 0.0182803
0.311711 0.470665 0.0184024
0.329686 0.470863 0.0186007
0.347616 0.471061 0.0187991
0.365591 0.471183 0.0189212
0.383719 0.471275 0.0189975
0.402167 0.47129 0.019028
0.420874 0.471473 0.0192111
0.439704 0.471458 0.0191958
0.458885 0.471366 0.0191043
0.478416 0.471183 0.0189212
0.498238 0.470954 0.018677
0.518791 0.470756 0.0184939
0.539559 0.470344 0.0180667
0.561776 0.469551 0.0172885
0.586999 0.467964 0.0156863
0.615732 0.465446 0.0131685
0.648646 0.462043 0.00978103
0.684367 0.45774 0.00546273
0.722179 0.452873 0.000610361
0.0408484 0.494026 0.0213016
0.0629435 0.492805 0.0200961
