exampleSite/static/images/warm-cinema-faded_1-vid_20210105_114628.cube
TITLE "Generated by Resolve"
LUT_3D_SIZE 9
0.0437476 0.0403601 0.0242161
0.131197 0.0361486 0.0199893
0.206424 0.0355535 0.0193942
0.278264 0.0362402 0.0200961
0.349554 0.0368963 0.020737
0.422156 0.0366369 0.0204776
0.498573 0.0351873 0.019028
0.585748 0.0305943 0.014435
0.718822 0.0133974 0
0.046891 0.112337 0.0273594
0.134493 0.108278 0.0232853
0.20943 0.107393 0.0224002
0.280491 0.107301 0.0223087
0.350973 0.107149 0.0221561
0.423056 0.106371 0.0213779
0.498817 0.10425 0.0192721
0.585565 0.0992447 0.0142519
0.718318 0.0817273 0
0.0493935 0.182849 0.0298619
0.13637 0.178164 0.0251621
0.21059 0.176562 0.0235599
0.281163 0.175998 0.0229953
0.351263 0.175448 0.022446
0.423041 0.174365 0.0213626
0.498726 0.172183 0.0191806
0.585214 0.166903 0.013901
0.717876 0.149294 0
0.0507057 0.251057 0.0311742
0.137331 0.246021 0.0261234
0.211429 0.244297 0.0243992
0.281666 0.243397 0.0234989
0.351644 0.242725 0.0228428
0.423392 0.241611 0.0217136
0.499107 0.23946 0.0195621
0.585824 0.234394 0.0144961
0.718639 0.216953 0
0.050782 0.318578 0.0312505
0.137316 0.313436 0.0261082
0.211398 0.311696 0.0243687
0.281834 0.310994 0.0236667
0.351949 0.31046 0.0231327
0.423774 0.309422 0.0220951
0.499718 0.307485 0.0201572
0.58677 0.30277 0.0154421
0.720027 0.285771 0
0.0491035 0.386954 0.029572
0.135653 0.381826 0.024445
0.209949 0.380316 0.0229191
0.280674 0.379889 0.0225071
0.351141 0.379721 0.0223239
0.423514 0.379217 0.0218357
0.500008 0.377844 0.0204623
0.587564 0.373632 0.0162509
0.721401 0.357214 0
0.0445106 0.457404 0.0249638
0.131579 0.452811 0.0203708
0.206317 0.451743 0.0193027
0.27744 0.451713 0.0192721
0.348531 0.452155 0.0197147
0.421592 0.452369 0.019913
0.498863 0.451743 0.0193027
0.58735 0.448478 0.016022
0.722225 0.433097 0.000640879
0.0357977 0.531701 0.0162509
0.123507 0.527749 0.0122988
0.198993 0.527413 0.0119783
0.271077 0.528359 0.0129091
0.343053 0.529686 0.0142367
0.417105 0.530877 0.0154269
0.495293 0.531197 0.0157473
0.585016 0.529137 0.0137026
0.721218 0.515084 0
0.0040589 0.618875 0
0.0927291 0.615869 0
0.1691 0.616434 0
0.242267 0.618448 0
0.31548 0.621012 0
0.390906 0.62359 0
0.470832 0.625635 0
0.563165 0.6262 0
0.704189 0.616968 0
0.044358 0.0409705 0.0880293
0.131853 0.0368048 0.0838636
0.207095 0.0362249 0.0832837
0.279057 0.0370489 0.0841077
0.350225 0.0375677 0.0846265
0.422736 0.0372168 0.0842756
0.499092 0.0357061 0.0827649
0.586221 0.0310521 0.0781109
0.719249 0.0138247 0.0608835
0.0476387 0.113085 0.09131
0.135134 0.108919 0.0871443
0.21001 0.107973 0.0861982
0.280995 0.107805 0.0860304
0.351415 0.107591 0.0858167
0.423392 0.106706 0.0849317
0.499199 0.104631 0.0828565
0.585916 0.0995956 0.077821
0.718639 0.0820478 0.0602731
0.0498817 0.183337 0.0935531
0.136706 0.1785 0.088716
0.210971 0.176959 0.0871748
0.281514 0.176349 0.0865644
0.351598 0.175784 0.0859998
0.423362 0.174685 0.0849012
0.49897 0.172412 0.0826276
0.585519 0.167193 0.077409
0.718196 0.149615 0.0598306
0.0510567 0.251423 0.0947433
0.137667 0.246357 0.0896773
0.211749 0.244617 0.0879377
0.281987 0.243702 0.0870222
0.351965 0.243046 0.0863661
0.423713 0.241932 0.0852522
0.499458 0.239796 0.0831159
0.586191 0.23476 0.0780804
0.719051 0.217365 0.0606851
0.0511025 0.318883 0.0947738
0.137636 0.313756 0.0896468
0.211719 0.312032 0.0879225
0.282185 0.311345 0.0872358
0.352255 0.310765 0.086656
0.42414 0.309789 0.0856794
0.50016 0.307942 0.0838331
0.587259 0.303258 0.0791485
0.720562 0.286305 0.0621958
0.0494698 0.387304 0.0931411
0.136034 0.382208 0.0880446
0.210361 0.380728 0.0865644
0.281147 0.380362 0.086183
0.351659 0.380224 0.0860609
0.424079 0.379797 0.0856184
0.500587 0.378424 0.0842451
0.58819 0.374273 0.0800946
0.72221 0.358007 0.0638437
0.0449836 0.457877 0.0886549
0.132113 0.453346 0.084123
0.206928 0.452354 0.0831159
0.278126 0.452399 0.0831769
0.349248 0.452888 0.08365
0.422415 0.453178 0.0839551
0.499794 0.452674 0.0834516
0.588388 0.449516 0.0802777
0.723369 0.434226 0.0650034
0.0364996 0.532403 0.0801709
0.124285 0.528527 0.0762951
0.199847 0.528267 0.0760357
0.272023 0.529305 0.0770733
0.344121 0.530755 0.0785229
0.418265 0.532036 0.0798047
0.49662 0.532509 0.0802777
0.58645 0.530587 0.0783551
0.72282 0.516686 0.0644541
0.00505074 0.619867 0.0487373
0.0937057 0.616846 0.045716
0.170306 0.617624 0.0464942
0.243656 0.619837 0.0486915
0.317006 0.622538 0.0514076
0.392584 0.625254 0.0541238
0.47274 0.627543 0.0563973
0.566018 0.629053 0.0579232
0.708385 0.621149 0.0500191
0.0449073 0.0415198 0.152773
0.132479 0.0374304 0.148684
0.207935 0.0370642 0.148318
0.279744 0.0377356 0.148989
0.35079 0.0381323 0.149386
0.423239 0.0377203 0.148974
0.499535 0.0361334 0.147387
0.586587 0.0314336 0.142687
0.719585 0.0141604 0.125399
0.0482643 0.11371 0.15613
0.135668 0.109453 0.151873
0.210468 0.108446 0.150851
0.281407 0.108217 0.150637
0.351781 0.107958 0.150378
0.423636 0.10695 0.149371
0.499474 0.104921 0.147326
0.586191 0.099855 0.142275
0.718898 0.0823072 0.124727
0.0502632 0.183719 0.158129
0.137057 0.178851 0.153262
0.211292 0.177264 0.151675
0.281804 0.176638 0.151034
0.351858 0.176043 0.150454
0.423606 0.174929 0.14934
0.499229 0.172671 0.147082
0.585763 0.167437 0.141848
0.718456 0.149874 0.124285
0.0513313 0.251698 0.159197
0.137911 0.246601 0.154116
0.211887 0.244755 0.15227
0.282231 0.243946 0.151461
0.352209 0.24329 0.150805
0.423972 0.242191 0.149706
0.499733 0.24007 0.147585
0.586496 0.235065 0.14258
0.719265 0.217578 0.125093
0.0513466 0.319127 0.159213
0.137896 0.314015 0.154086
0.211994 0.312291 0.152377
0.28246 0.31162 0.151705
0.352483 0.310994 0.15108
0.424491 0.31014 0.150225
0.500557 0.308339 0.148409
0.587701 0.303716 0.143786
0.721065 0.286809 0.126894
0.0496681 0.387518 0.157534
0.136355 0.382544 0.15256
0.210727 0.381094 0.15111
0.281544 0.380758 0.15079
0.352117 0.380697 0.150713
0.424613 0.380316 0.150332
0.501198 0.379034 0.14905
0.588846 0.374929 0.144945
0.722942 0.358755 0.128771
0.0453956 0.458305 0.153262
0.132586 0.453819 0.148791
0.20737 0.452796 0.147753
0.278737 0.45301 0.147967
0.34995 0.45359 0.148547
0.423178 0.453956 0.148913
0.500664 0.453559 0.148516
0.58938 0.450507 0.14548
0.724498 0.435355 0.130327
0.0371405 0.533043 0.145006
0.125017 0.529259 0.141222
0.200671 0.529107 0.141054
0.272938 0.530221 0.142184
0.345129 0.531777 0.143725
0.419287 0.533059 0.145022
0.497932 0.533822 0.145785
0.5879 0.532036 0.143999
0.724407 0.518288 0.130236
0.00604257 0.620844 0.113893
0.0948196 0.61796 0.111009
0.171481 0.618814 0.111864
0.244984 0.621164 0.114214
0.318517 0.624063 0.117113
0.394278 0.626963 0.120012
0.474907 0.629709 0.122759
0.568994 0.632029 0.125078
0.712535 0.625315 0.118364
0.0455634 0.0421759 0.216464
0.133272 0.0382239 0.212512
0.208789 0.0379339 0.212207
0.280476 0.038468 0.212741
0.351308 0.0386511 0.21294
0.423804 0.0382849 0.212558
0.500038 0.0366369 0.210925
0.587045 0.0318761 0.206165
0.719875 0.0144503 0.188724
0.0488441 0.11429 0.219745
0.136278 0.110063 0.215503
0.211002 0.108965 0.21442
0.28188 0.108705 0.214145
0.352209 0.108385 0.21384
0.424033 0.107347 0.212787
0.49984 0.105287 0.210727
0.586526 0.100206 0.205646
0.719234 0.0826429 0.188083
0.0507057 0.184161 0.221607
0.137423 0.179217 0.216648
0.211673 0.177646 0.215091
0.282155 0.176989 0.214435
0.352193 0.176379 0.213825
0.423926 0.17525 0.21268
0.499474 0.172915 0.210361
0.586084 0.167773 0.205219
0.718791 0.15021 0.187655
0.0516823 0.252049 0.222583
0.138247 0.246937 0.217487
0.212177 0.245045 0.215595
0.282551 0.244282 0.214817
0.352544 0.243626 0.214176
0.424323 0.242542 0.213077
0.500099 0.240436 0.210986
0.586786 0.235355 0.205905
0.719692 0.218006 0.18854
0.051667 0.319463 0.222568
0.138231 0.314351 0.217456
0.212345 0.312657 0.215763
0.282841 0.312001 0.215106
0.352895 0.311406 0.214511
0.424933 0.310582 0.213687
0.501045 0.308812 0.211933
0.588251 0.304265 0.20737
0.721675 0.287419 0.190539
0.0500038 0.387854 0.220905
0.136782 0.382971 0.216022
0.211185 0.381552 0.214603
0.282048 0.381277 0.214328
0.352682 0.381247 0.214298
0.425238 0.380941 0.213993
0.501793 0.379614 0.212665
0.589639 0.375708 0.208759
0.723812 0.359609 0.19266
0.0459449 0.458839 0.216831
0.133165 0.454414 0.212406
0.207965 0.453391 0.211383
0.279454 0.453727 0.211719
0.350774 0.454414 0.212406
0.424094 0.454871 0.212863
0.501656 0.454551 0.212543
0.590478 0.451606 0.209598
0.725673 0.436545 0.194537
0.0378882 0.533791 0.208774
0.125856 0.530098 0.205081
0.201617 0.530053 0.205035
0.274006 0.531273 0.206271
0.346303 0.532937 0.207935
0.420554 0.534325 0.209323
0.499352 0.535241 0.210239
0.589502 0.533639 0.208621
0.726192 0.520058 0.195056
0.00706493 0.621866 0.177966
0.0959487 0.619089 0.175189
0.172824 0.620157 0.176242
0.246448 0.622629 0.178714
0.32015 0.625681 0.181765
0.396124 0.628809 0.184894
0.477577 0.63238 0.188464
0.57261 0.635645 0.19173
0.717174 0.629953 0.186038
0.0462348 0.0428473 0.280247
0.133974 0.0389105 0.276326
0.209598 0.0387427 0.276143
0.281071 0.0390631 0.276478
0.351919 0.0392615 0.276661
0.424323 0.0388037 0.276204
0.500511 0.0371099 0.27451
0.587472 0.0323033 0.269718
0.720241 0.0148165 0.252216
0.0495003 0.114946 0.283528
0.136858 0.110643 0.27921
0.211521 0.109483 0.27805
0.282338 0.109148 0.277729
0.352483 0.108659 0.277241
0.424399 0.107729 0.276295
0.500206 0.105638 0.274205
0.586862 0.100526 0.269108
0.719554 0.0829633 0.25153
0.0510262 0.184482 0.285054
0.137819 0.179614 0.280171
0.212039 0.178012 0.278584
0.282506 0.17734 0.277897
0.352529 0.176715 0.277272
0.424125 0.175448 0.276005
0.499794 0.173236 0.273808
0.586419 0.168093 0.268666
0.719142 0.150561 0.251118
0.052018 0.252369 0.286046
0.138537 0.247227 0.280888
0.212497 0.245365 0.279042
0.282872 0.244602 0.278264
0.35288 0.243961 0.277623
0.424674 0.242893 0.276555
0.500465 0.240818 0.274479
0.587198 0.235782 0.269444
0.720119 0.218433 0.25211
0.0520027 0.319783 0.286015
0.138567 0.314687 0.280919
0.212696 0.313008 0.27924
0.283101 0.312245 0.278492
0.353307 0.311818 0.278065
0.425391 0.31104 0.277272
0.501549 0.309316 0.275563
0.5888 0.304799 0.271046
0.722301 0.288045 0.254276
0.0504005 0.388235 0.284413
0.137209 0.383398 0.279561
0.211673 0.382025 0.278202
0.282582 0.381796 0.277974
0.353246 0.381826 0.278004
0.425742 0.38146 0.277638
0.50251 0.380331 0.276509
0.590448 0.376516 0.272694
0.724712 0.36051 0.256687
0.046479 0.459388 0.280507
0.133745 0.454978 0.276097
0.208637 0.454063 0.275181
0.280186 0.454459 0.275578
0.351598 0.455238 0.276356
0.42504 0.455802 0.276921
0.502708 0.455604 0.276722
0.591638 0.452766 0.273884
0.726818 0.43769 0.258808
0.0386664 0.534569 0.272694
0.126711 0.530953 0.269078
0.202579 0.530999 0.269108
0.275074 0.532357 0.270466
0.347402 0.534035 0.27216
0.421881 0.535668 0.273777
0.500801 0.53669 0.274815
0.591119 0.535241 0.273365
0.728023 0.521889 0.260014
0.00805676 0.622873 0.242084
0.0971847 0.620325 0.239551
0.174228 0.621546 0.240772
0.24799 0.62417 0.243381
0.321828 0.627359 0.246571
0.398047 0.630732 0.249943
0.480446 0.635248 0.254459
0.576699 0.639735 0.258946
0.72253 0.635294 0.254505
0.0468147 0.0434424 0.345602
0.134752 0.039704 0.341878
0.210239 0.0393683 0.341543
0.281605 0.0395819 0.341756
0.352377 0.0397192 0.341878
0.42472 0.0392004 0.34136
0.500832 0.0374456 0.339605
0.587716 0.0325475 0.334722
0.7205 0.0150759 0.317235
0.0500038 0.11545 0.348775
0.137285 0.11107 0.344396
0.211887 0.10985 0.343191
0.282597 0.109407 0.342748
0.352758 0.108934 0.34226
0.424659 0.107973 0.341299
0.50042 0.105867 0.339193
0.587076 0.10074 0.334081
0.719692 0.0831159 0.316442
0.0513313 0.184787 0.350103
0.138094 0.179889 0.345205
0.212284 0.178256 0.343572
0.282719 0.177554 0.34287
0.352728 0.176913 0.342245
0.424323 0.175647 0.340978
0.499992 0.173449 0.338766
0.586633 0.168307 0.333639
0.719371 0.15079 0.316106
0.0522316 0.252598 0.351019
0.138643 0.247333 0.345754
0.212696 0.245563 0.343999
0.283085 0.2448 0.343236
0.353094 0.244175 0.342596
0.424903 0.243122 0.341543
0.500694 0.241032 0.339452
0.587442 0.236027 0.334447
0.720455 0.218769 0.317205
0.0522164 0.319997 0.350988
0.138796 0.314916 0.345907
0.21294 0.313252 0.344244
0.28336 0.31252 0.343511
0.353613 0.312123 0.34313
0.425742 0.311391 0.342382
0.501945 0.309728 0.340719
0.589258 0.305257 0.336263
0.722774 0.288518 0.319524
0.0506905 0.388525 0.349462
0.13753 0.383703 0.34464
0.212024 0.382391 0.343328
0.283009 0.382223 0.34316
0.35375 0.38233 0.343252
0.426322 0.382025 0.342962
0.50312 0.380957 0.341894
0.59115 0.377234 0.338155
0.725521 0.361334 0.322271
0.0469062 0.4598 0.345678
0.134142 0.455375 0.341253
0.209232 0.454643 0.34052
0.280858 0.455131 0.341009
0.352346 0.45597 0.341848
0.425864 0.456641 0.342519
0.50367 0.456565 0.342428
0.592721 0.453849 0.339727
0.728038 0.438895 0.324773
0.0393683 0.535271 0.33814
0.127504 0.531746 0.334615
0.203449 0.531884 0.334752
0.275975 0.533242 0.336126
0.34847 0.535103 0.337972
0.423163 0.536934 0.339803
0.50222 0.538109 0.340978
0.592676 0.536797 0.339681
0.729824 0.52369 0.326558
0.00909438 0.623911 0.307881
0.0983444 0.621485 0.305455
0.175525 0.622843 0.306813
0.24947 0.62565 0.309621
0.323491 0.629023 0.312993
0.400198 0.632883 0.316854
0.483299 0.638102 0.322072
0.580896 0.643931 0.327901
0.728328 0.641108 0.325078
0.0472419 0.0438697 0.414206
0.135256 0.0401923 0.410529
0.21059 0.0397192 0.410056
0.281834 0.0398108 0.410147
0.35256 0.0399023 0.410239
0.424842 0.0393225 0.409659
0.500923 0.0375219 0.407858
0.587655 0.0324865 0.402823
0.7205 0.0150759 0.385412
0.0502327 0.115679 0.417197
0.137438 0.111223 0.412726
0.211994 0.109957 0.41146
0.282643 0.109468 0.410971
0.352789 0.108965 0.410468
0.424643 0.107958 0.409461
0.500404 0.105837 0.40734
0.58703 0.10071 0.402213
0.719661 0.0830701 0.384573
0.0513771 0.184833 0.418326
0.138094 0.179889 0.413382
0.212268 0.178241 0.411734
0.282689 0.177523 0.411017
0.352605 0.176791 0.410285
0.424277 0.175601 0.409094
0.499962 0.173404 0.406897
0.586603 0.168276 0.40177
0.719356 0.150774 0.384268
0.0522011 0.252552 0.41915
0.138598 0.247288 0.413886
0.21265 0.245518 0.412116
0.28304 0.24477 0.411368
0.353079 0.24416 0.410758
0.424903 0.243122 0.40972
0.500618 0.240955 0.407553
0.587503 0.236072 0.40267
0.720562 0.218891 0.385473
0.0521706 0.319951 0.41912
0.138781 0.3149 0.414054
0.212879 0.313176 0.412345
0.283391 0.312551 0.411719
0.353689 0.3122 0.411368
0.425864 0.311513 0.410681
0.502129 0.309895 0.409064
0.589502 0.305501 0.404669
0.72311 0.288853 0.388022
0.0507362 0.388586 0.417685
0.137621 0.38381 0.412909
0.212161 0.382528 0.411627
0.283192 0.382406 0.411521
0.353933 0.382498 0.411612
0.426612 0.38233 0.411429
0.503532 0.381369 0.410468
0.591638 0.377722 0.406821
0.726116 0.361913 0.391028
0.0471351 0.460044 0.414084
0.134417 0.45565 0.409689
0.209583 0.454994 0.409049
0.2813 0.455573 0.409628
0.35288 0.456519 0.410559
0.426505 0.457267 0.411322
0.504402 0.457282 0.411337
0.593454 0.454582 0.408621
0.729061 0.439918 0.393973
0.039826 0.535744 0.406775
0.128084 0.532326 0.403372
0.20415 0.53257 0.403616
0.276799 0.534066 0.405112
0.349371 0.536004 0.40705
0.424216 0.537987 0.409033
0.503441 0.539345 0.410376
0.594079 0.538216 0.409262
0.731685 0.525551 0.396597
0.00994888 0.624765 0.376913
0.099321 0.622461 0.374609
0.176623 0.623941 0.376089
0.250721 0.626902 0.379034
0.324971 0.630503 0.38265
0.402533 0.635203 0.38735
0.486641 0.641443 0.393576
0.58526 0.64828 0.400427
0.734081 0.64686 0.398993
0.0471809 0.0437934 0.487877
0.135286 0.040238 0.484321
0.210391 0.0395209 0.483604
0.281666 0.0396429 0.483726
0.352316 0.0396582 0.483742
0.424552 0.0390326 0.483101
0.500572 0.0371862 0.481254
0.587274 0.0321202 0.476204
0.720088 0.0146639 0.458747
0.0500496 0.115496 0.490745
0.137179 0.110964 0.486213
0.211673 0.109636 0.484886
0.282216 0.109026 0.484276
0.352392 0.108568 0.483818
0.424231 0.107546 0.482795
0.499962 0.105394 0.480644
0.586587 0.100267 0.475502
0.719127 0.082536 0.457786
0.0509957 0.184466 0.491691
0.137697 0.179492 0.486732
0.211841 0.177813 0.485054
0.282261 0.177081 0.484321
0.352102 0.176287 0.483528
0.423835 0.175158 0.482383
0.499519 0.172961 0.480201
0.586175 0.167865 0.47509
0.718944 0.150362 0.457603
0.0516518 0.252003 0.492348
0.138155 0.246845 0.48719
0.212207 0.245075 0.48542
0.282612 0.244327 0.484672
0.352651 0.243732 0.484077
0.424506 0.242725 0.48307
0.500252 0.240589 0.480934
0.587167 0.235752 0.476081
0.720287 0.218601 0.45893
0.0517433 0.319524 0.492439
0.138323 0.314443 0.487343
0.212421 0.312734 0.485634
0.283055 0.3122 0.485115
0.353384 0.311894 0.484794
0.425589 0.311238 0.484154
0.501915 0.309682 0.482597
0.589349 0.305364 0.478264
0.722911 0.288655 0.46157
0.0504005 0.388251 0.491096
0.137331 0.38352 0.486366
0.211933 0.3823 0.485145
0.283009 0.382223 0.485069
0.353719 0.3823 0.485145
0.426566 0.382269 0.485115
0.503578 0.381415 0.48426
0.591775 0.377859 0.480705
0.726329 0.362142 0.464988
0.0468605 0.45977 0.487556
0.13431 0.455558 0.483345
0.209552 0.454978 0.482765
0.281361 0.455634 0.483436
0.353063 0.456687 0.484474
0.42678 0.457557 0.485344
0.504784 0.457679 0.485466
0.593912 0.455039 0.482841
0.729702 0.440574 0.46836
0.0399329 0.535836 0.480629
0.128267 0.532509 0.477302
0.204425 0.532845 0.477638
0.277134 0.534401 0.479194
0.349935 0.536568 0.481361
0.424903 0.538674 0.483467
0.504295 0.540185 0.484977
0.595148 0.539284 0.484077
0.733593 0.527459 0.472236
0.0104219 0.625223 0.451118
0.0999466 0.623087 0.448981
0.177401 0.62472 0.450614
0.251637 0.627817 0.453712
0.326131 0.631678 0.457557
0.404608 0.637278 0.463172
0.489906 0.644709 0.470588
0.589868 0.652903 0.478782
0.739742 0.652522 0.478401
0.0466163 0.0432441 0.570718
0.134569 0.0395209 0.56701
0.209583 0.0387121 0.566201
0.280781 0.0387579 0.566247
0.35137 0.0387121 0.566186
0.423529 0.0380102 0.565499
0.499397 0.0360113 0.563485
0.586191 0.0310216 0.558511
0.718975 0.01355 0.541039
0.049134 0.11458 0.57322
0.136202 0.109987 0.568643
0.210513 0.108476 0.567132
0.281147 0.107973 0.566613
0.351293 0.107469 0.566125
0.423117 0.106432 0.565072
0.498833 0.104265 0.562921
0.585321 0.0990005 0.557641
0.717983 0.0813916 0.540032
0.0499275 0.183383 0.574029
0.136599 0.178378 0.569024
0.210712 0.176684 0.56733
0.281086 0.175921 0.566567
0.350958 0.175143 0.565789
0.42269 0.174014 0.564645
0.49839 0.171832 0.562463
0.585061 0.166751 0.557382
0.717861 0.149279 0.539925
0.0504768 0.250828 0.574578
0.137011 0.245701 0.569436
0.211078 0.243946 0.567681
0.281483 0.243198 0.566949
0.351537 0.242618 0.566369
0.423316 0.241535 0.56527
0.499199 0.239551 0.563287
0.58616 0.234745 0.55848
0.71931 0.217624 0.541375
0.0506294 0.31841 0.574716
0.13724 0.313359 0.569665
0.211353 0.31165 0.567956
0.282002 0.311162 0.567483
0.352392 0.310903 0.567224
0.424659 0.310307 0.566613
0.50103 0.308797 0.565118
0.588418 0.304433 0.560739
0.722148 0.287892 0.544213
0.0493629 0.387213 0.573465
0.136355 0.382528 0.56878
0.211002 0.381369 0.56762
0.282124 0.381353 0.56759
0.352926 0.381506 0.567758
0.425834 0.381552 0.567788
0.502937 0.380774 0.567025
0.591257 0.377325 0.563577
0.725917 0.36173 0.547982
0.0459907 0.4589 0.570092
0.133562 0.454795 0.565988
0.208865 0.454292 0.565484
0.280751 0.455039 0.566232
0.352544 0.456184 0.567376
0.426398 0.457176 0.568368
0.504448 0.457328 0.568521
0.59379 0.454917 0.56611
0.729686 0.440558 0.551751
0.0393835 0.535286 0.56347
0.12781 0.532052 0.560235
0.203937 0.532357 0.56054
0.276905 0.534188 0.562371
0.349859 0.536492 0.564691
0.424979 0.53875 0.566934
0.504509 0.540398 0.568597
0.595605 0.539742 0.567926
0.734981 0.528862 0.557046
0.0102388 0.62504 0.534325
0.0999008 0.623041 0.532326
0.177523 0.624857 0.534142
0.251972 0.628138 0.537438
0.32697 0.632502 0.541787
0.406058 0.638727 0.548012
0.492897 0.647684 0.556985
0.594354 0.657389 0.566674
0.745312 0.658076 0.567376
