exampleSite/static/images/warm-cinema-faded_1-vid_20210105_114628.cube
TITLE "Generated by Resolve"
LUT_3D_SIZE 5
0.0437476 0.0403601 0.0242161
0.206424 0.0355535 0.0193942
0.349554 0.0368963 0.020737
0.498573 0.0351873 0.019028
0.718822 0.0133974 0
0.0493935 0.182849 0.0298619
0.21059 0.176562 0.0235599
0.351263 0.175448 0.022446
0.498726 0.172183 0.0191806
0.717876 0.149294 0
0.050782 0.318578 0.0312505
0.211398 0.311696 0.0243687
0.351949 0.31046 0.0231327
0.499718 0.307485 0.0201572
0.720027 0.285771 0
0.0445106 0.457404 0.0249638
0.206317 0.451743 0.0193027
0.348531 0.452155 0.0197147
0.498863 0.451743 0.0193027
0.722225 0.433097 0.000640879
0.0040589 0.618875 0
0.1691 0.616434 0
0.31548 0.621012 0
0.470832 0.625635 0
0.704189 0.616968 0
0.0449073 0.0415198 0.152773
0.207935 0.0370642 0.148318
0.35079 0.0381323 0.149386
0.499535 0.0361334 0.147387
0.719585 0.0141604 0.125399
0.0502632 0.183719 0.158129
0.211292 0.177264 0.151675
0.351858 0.176043 0.150454
0.499229 0.172671 0.147082
0.718456 0.149874 0.124285
0.0513466 0.319127 0.159213
0.211994 0.312291 0.152377
0.352483 0.310994 0.15108
0.500557 0.308339 0.148409
0.721065 0.286809 0.126894
0.0453956 0.458305 0.153262
0.20737 0.452796 0.147753
0.34995 0.45359 0.148547
0.500664 0.453559 0.148516
0.724498 0.435355 0.130327
0.00604257 0.620844 0.113893
0.171481 0.618814 0.111864
0.318517 0.624063 0.117113
0.474907 0.629709 0.122759
0.712535 0.625315 0.118364
0.0462348 0.0428473 0.280247
0.209598 0.0387427 0.276143
0.351919 0.0392615 0.276661
0.500511 0.0371099 0.27451
0.720241 0.0148165 0.252216
0.0510262 0.184482 0.285054
0.212039 0.178012 0.278584
0.352529 0.176715 0.277272
0.499794 0.173236 0.273808
0.719142 0.150561 0.251118
0.0520027 0.319783 0.286015
0.212696 0.313008 0.27924
0.353307 0.311818 0.278065
0.501549 0.309316 0.275563
0.722301 0.288045 0.254276
0.046479 0.459388 0.280507
0.208637 0.454063 0.275181
0.351598 0.455238 0.276356
0.502708 0.455604 0.276722
0.726818 0.43769 0.258808
0.00805676 0.622873 0.242084
0.174228 0.621546 0.240772
0.321828 0.627359 0.246571
0.480446 0.635248 0.254459
0.72253 0.635294 0.254505
0.0472419 0.0438697 0.414206
0.21059 0.0397192 0.410056
0.35256 0.0399023 0.410239
0.500923 0.0375219 0.407858
0.7205 0.0150759 0.385412
0.0513771 0.184833 0.418326
0.212268 0.178241 0.411734
0.352605 0.176791 0.410285
0.499962 0.173404 0.406897
0.719356 0.150774 0.384268
0.0521706 0.319951 0.41912
0.212879 0.313176 0.412345
0.353689 0.3122 0.411368
0.502129 0.309895 0.409064
0.72311 0.288853 0.388022
0.0471351 0.460044 0.414084
0.209583 0.454994 0.409049
0.35288 0.456519 0.410559
0.504402 0.457282 0.411337
0.729061 0.439918 0.393973
0.00994888 0.624765 0.376913
0.176623 0.623941 0.376089
0.324971 0.630503 0.38265
0.486641 0.641443 0.393576
0.734081 0.64686 0.398993
0.0466163 0.0432441 0.570718
0.209583 0.0387121 0.566201
0.35137 0.0387121 0.566186
0.499397 0.0360113 0.563485
0.718975 0.01355 0.541039
0.0499275 0.183383 0.574029
0.210712 0.176684 0.56733
0.350958 0.175143 0.565789
0.49839 0.171832 0.562463
0.717861 0.149279 0.539925
0.0506294 0.31841 0.574716
0.211353 0.31165 0.567956
0.352392 0.310903 0.567224
0.50103 0.308797 0.565118
0.722148 0.287892 0.544213
0.0459907 0.4589 0.570092
0.208865 0.454292 0.565484
0.352544 0.456184 0.567376
0.504448 0.457328 0.568521
0.729686 0.440558 0.551751
0.0102388 0.62504 0.534325
0.177523 0.624857 0.534142
0.32697 0.632502 0.541787
0.492897 0.647684 0.556985
0.745312 0.658076 0.567376
